X:146
T:'Way, Me Susiana!
M:6/8
L:1/8
Q:1/4=100
K:Ab
E|\
A2A GEE|F2A E3 |E2E E2D|CE2 z2E|
A2A AEE|F2A E2C|E2E EFG|AA,2 z2||
